X:1
T:Ricketts
L:1/8
M:4/4
I:linebreak $
K:G
V:1 treble 
V:1
|: D2 | G2 B>G E2 G>E | D2 E>D B,4 | .A2 .B2 .c2 .B2 | AGFE DEFD | G2 B>G E2 G>E | D2 E>D B,4 |$ %7
 A2 B2 cAFD | .G2 .B2 G2 :: Bc | d d2 B G2 BB | c e2 c A2 cc | B d2 B G2 B2 | AGFE DEFD | %14
 B d2 B G2 BB |$ c e2 c A4 | dBGB cAFD | .G2 .B2 G2 :| %18
